static/assets/img/logos/developer/sass.svg

<svg fill="none" height="48" viewBox="0 0 65 48" width="65" xmlns="http://www.w3.org/2000/svg"><path d="m55.1255 27.5629c-2.239.0127-4.1777.5504-5.8038 1.3511-.6004-1.1883-1.2008-2.2266-1.3007-3.002-.1126-.9006-.2502-1.4511-.1126-2.5267.1375-1.0758.7629-2.6018.7629-2.7269-.0127-.1125-.1377-.6629-1.426-.6754-1.2882-.0125-2.4015.2502-2.5266.5879s-.3752 1.1132-.5379 1.9137c-.2251 1.1758-2.5766 5.341-3.915 7.53-.4378-.8506-.813-1.6011-.8882-2.2016-.1125-.9005-.2502-1.451-.1125-2.5265.1376-1.0759.763-2.6017.763-2.7268-.0125-.1126-.1376-.663-1.4258-.6755-1.2884-.0125-2.4015.2502-2.5266.5879s-.2627 1.1383-.5379 1.9138c-.2628.7755-3.3898 7.73-4.2029 9.5437-.4127.9256-.7753 1.6636-1.0381 2.1639-.2627.5004-.0125.0376-.0376.0876-.2251.4253-.3502.6629-.3502.6629v.0127c-.1751.3127-.3627.6127-.4504.6127-.0625 0-.1876-.838.025-1.9886.4628-2.4142 1.5885-6.1791 1.5762-6.3167 0-.0625.2125-.7256-.7256-1.0632-.9131-.3377-1.2382.2252-1.3134.2252-.075 0-.1376.2001-.1376.2001s1.0132-4.2401-1.9388-4.2401c-1.8512 0-4.4028 2.0138-5.6662 3.8525-.8005.4378-2.5016 1.3632-4.3028 2.3515-.6879.3753-1.4009.7755-2.0763 1.1383l-.1375-.1504c-3.5773-3.815-10.19416-6.5168-9.91898-11.6451.10007-1.8637.7505-6.7794 12.70848-12.73333 9.7939-4.87819 17.6365-3.53982 18.9998-.56287 1.9387 4.2528-4.1903 12.1579-14.3718 13.2962-3.8776.4378-5.9165-1.0632-6.4292-1.6261-.5379-.5879-.6129-.6129-.8131-.5003-.3252.1751-.125.7005 0 1.0132.3002.788 1.5511 2.1889 3.6775 2.8894 1.8635.6129 6.4166.9506 11.9202-1.1758 6.1666-2.3891 10.9822-9.0184 9.5688-14.55953-1.4384-5.641194-10.7946-7.4924-19.6378-4.35285-5.2661 1.87623-10.96983 4.80314-15.07252 8.64318-4.878185 4.5529-5.653692 8.5305-5.3284798 10.1816 1.1383698 5.8914 9.2560498 9.7314 12.5081998 12.5708-.1626.0874-.3127.1749-.4503.2501-1.6261.8004-7.81763 4.0402-9.36864 7.4673-1.75115 3.8775.27518 6.667 1.62606 7.0422 4.17773 1.1633 8.45548-.9256 10.76958-4.3653 2.3013-3.4398 2.0263-7.9052.9631-9.9441l-.0377-.075 1.2759-.7505c.8256-.4878 1.6387-.9381 2.3515-1.326-.4001 1.0882-.6879 2.3766-.8379 4.2528-.1751 2.2016.7255 5.0533 1.9137 6.179.5254.4877 1.1508.5004 1.5385.5004 1.3759 0 2.0014-1.1384 2.6893-2.5017.8506-1.6636 1.6011-3.5898 1.6011-3.5898s-.9382 5.2159 1.626 5.2159c.9381 0 1.8762-1.2133 2.3015-1.8387v.0125s.025-.0375.0751-.1251c.0525-.0776.1025-.1568.1501-.2375v-.025c.3752-.6505 1.2133-2.1389 2.4641-4.603 1.6134-3.1771 3.1645-7.1547 3.1645-7.1547s.1501.9756.6129 2.5767c.2751.9507.8755 1.9888 1.3383 3.0019-.3752.5254-.6004.8257-.6004.8257l.0125.0125c-.3001.4003-.6379.8257-.988 1.2508-1.2758 1.526-2.8018 3.2648-3.002 3.7651-.2376.5878-.1876 1.0256.2752 1.3759.3377.2502.9381.3001 1.576.2502 1.1508-.0752 1.9513-.3628 2.3516-.538.6254-.2252 1.3384-.5629 2.0263-1.0632 1.2508-.9255 2.0138-2.2388 1.9388-3.99-.0376-.9631-.3503-1.9137-.738-2.8143.1126-.1626.2253-.3254.3377-.5004 1.9763-2.8895 3.5023-6.0664 3.5023-6.0664s.1501.9756.6129 2.5767c.2375.813.713 1.7012 1.1382 2.5768-1.8512 1.5135-3.0144 3.2646-3.4147 4.4154-.738 2.1264-.1626 3.0895.9256 3.3146.4877.1001 1.1883-.1251 1.7135-.3502.6504-.2126 1.4385-.5755 2.1641-1.1132 1.2508-.9256 2.4516-2.214 2.389-3.9526-.0375-.8005-.2501-1.5886-.5378-2.339 1.576-.6505 3.6147-1.0257 6.204-.713 5.5662.6504 6.6669 4.1277 6.4544 5.5786-.2127 1.4511-1.3759 2.2515-1.7638 2.5017-.3878.2376-.5129.3253-.4753.5003.05.2628.2251.2502.5628.2003.4628-.0752 2.927-1.1883 3.027-3.8649.1501-3.4403-3.1145-7.1928-8.9058-7.1554zm-42.9281 14.472c-1.8387 2.0138-4.42786 2.7768-5.52858 2.1264-1.18828-.6879-.7256-3.6524 1.5385-5.7913 1.3759-1.3008 3.16458-2.5016 4.34038-3.2396.2626-.1626.6629-.4001 1.1382-.6879.0751-.05.1251-.0751.1251-.0751.0875-.05.1876-.1126.2877-.1751.838 3.052.0375 5.7287-1.9013 7.8426zm13.4463-9.1435c-.6379 1.5636-1.9888 5.5787-2.8018 5.3535-.7006-.1876-1.1257-3.2271-.1377-6.229.5003-1.5137 1.5635-3.3147 2.1889-4.0153 1.0133-1.1257 2.1139-1.501 2.3892-1.0382.3252.6005-1.2383 4.9534-1.6386 5.929zm11.0948 5.3035c-.2752.1377-.5254.2377-.6379.1627-.0876-.05.1124-.2376.1124-.2376s1.3884-1.4885 1.9388-2.1764c.3127-.4002.6879-.863 1.0882-1.3885v.1501c.0001 1.8011-1.726 3.0019-2.5015 3.4897zm8.5554-1.9513c-.2001-.1501-.1749-.6129.5004-2.0638.2628-.5754.863-1.5385 1.9012-2.4516.1251.3752.2003.7378.1876 1.0757-.0123 2.2515-1.6134 3.0895-2.5892 3.4397z" fill="#adb5bd"/></svg>

<svg  width="65" height="48" viewBox="0 0 65 48" fill="none" xmlns="http://www.w3.org/2000/svg">
<path d="M55.1255 27.5629C52.8865 27.5756 50.9478 28.1133 49.3217 28.914C48.7213 27.7257 48.1209 26.6874 48.021 25.912C47.9084 25.0114 47.7708 24.4609 47.9084 23.3853C48.0459 22.3095 48.6713 20.7835 48.6713 20.6584C48.6586 20.5459 48.5336 19.9955 47.2453 19.983C45.9571 19.9705 44.8438 20.2332 44.7187 20.5709C44.5936 20.9086 44.3435 21.6841 44.1808 22.4846C43.9557 23.6604 41.6042 27.8256 40.2658 30.0146C39.828 29.164 39.4528 28.4135 39.3776 27.813C39.2651 26.9125 39.1274 26.362 39.2651 25.2865C39.4027 24.2106 40.0281 22.6848 40.0281 22.5597C40.0156 22.4471 39.8905 21.8967 38.6023 21.8842C37.3139 21.8717 36.2008 22.1344 36.0757 22.4721C35.9506 22.8098 35.813 23.6104 35.5378 24.3859C35.275 25.1614 32.148 32.1159 31.3349 33.9296C30.9222 34.8552 30.5596 35.5932 30.2968 36.0935C30.0341 36.5939 30.2843 36.1311 30.2592 36.1811C30.0341 36.6064 29.909 36.844 29.909 36.844V36.8567C29.7339 37.1694 29.5463 37.4694 29.4586 37.4694C29.3961 37.4694 29.271 36.6314 29.4836 35.4808C29.9464 33.0666 31.0721 29.3017 31.0598 29.1641C31.0598 29.1016 31.2723 28.4385 30.3342 28.1009C29.4211 27.7632 29.096 28.3261 29.0208 28.3261C28.9458 28.3261 28.8832 28.5262 28.8832 28.5262C28.8832 28.5262 29.8964 24.2861 26.9444 24.2861C25.0932 24.2861 22.5416 26.2999 21.2782 28.1386C20.4777 28.5764 18.7766 29.5018 16.9754 30.4901C16.2875 30.8654 15.5745 31.2656 14.8991 31.6284L14.7616 31.478C11.1843 27.663 4.56744 24.9612 4.84262 19.8329C4.94269 17.9692 5.59312 13.0535 17.5511 7.09957C27.345 2.22138 35.1876 3.55975 36.5509 6.5367C38.4896 10.7895 32.3606 18.6946 22.1791 19.8329C18.3015 20.2707 16.2626 18.7697 15.7499 18.2068C15.212 17.6189 15.137 17.5939 14.9368 17.7065C14.6116 17.8816 14.8118 18.407 14.9368 18.7197C15.237 19.5077 16.4879 20.9086 18.6143 21.6091C20.4778 22.222 25.0309 22.5597 30.5345 20.4333C36.7011 18.0442 41.5167 11.4149 40.1033 5.87377C38.6649 0.232576 29.3087 -1.61863 20.4655 1.52092C15.1994 3.39715 9.49567 6.32406 5.39298 10.1641C0.514795 14.717 -0.260712 18.6946 0.0645002 20.3457C1.20287 26.2371 9.32055 30.0771 12.5727 32.9165C12.4101 33.0039 12.26 33.0914 12.1224 33.1666C10.4963 33.967 4.30477 37.2068 2.75376 40.6339C1.00261 44.5114 3.02894 47.3009 4.37982 47.6761C8.55755 48.8394 12.8353 46.7505 15.1494 43.3108C17.4507 39.871 17.1757 35.4056 16.1125 33.3667L16.0748 33.2917L17.3507 32.5412C18.1763 32.0534 18.9894 31.6031 19.7022 31.2152C19.3021 32.3034 19.0143 33.5918 18.8643 35.468C18.6892 37.6696 19.5898 40.5213 20.778 41.647C21.3034 42.1347 21.9288 42.1474 22.3165 42.1474C23.6924 42.1474 24.3179 41.009 25.0058 39.6457C25.8564 37.9821 26.6069 36.0559 26.6069 36.0559C26.6069 36.0559 25.6687 41.2718 28.2329 41.2718C29.171 41.2718 30.1091 40.0585 30.5344 39.4331V39.4456C30.5344 39.4456 30.5594 39.4081 30.6095 39.3205C30.662 39.2429 30.712 39.1637 30.7596 39.083V39.058C31.1348 38.4075 31.9729 36.9191 33.2237 34.455C34.8371 31.2779 36.3882 27.3003 36.3882 27.3003C36.3882 27.3003 36.5383 28.2759 37.0011 29.877C37.2762 30.8277 37.8766 31.8658 38.3394 32.8789C37.9642 33.4043 37.739 33.7046 37.739 33.7046L37.7515 33.7171C37.4514 34.1174 37.1136 34.5428 36.7635 34.9679C35.4877 36.4939 33.9617 38.2327 33.7615 38.733C33.5239 39.3208 33.5739 39.7586 34.0367 40.1089C34.3744 40.3591 34.9748 40.409 35.6127 40.3591C36.7635 40.2839 37.564 39.9963 37.9643 39.8211C38.5897 39.5959 39.3027 39.2582 39.9906 38.7579C41.2414 37.8324 42.0044 36.5191 41.9294 34.7679C41.8918 33.8048 41.5791 32.8542 41.1914 31.9536C41.304 31.791 41.4167 31.6282 41.5291 31.4532C43.5054 28.5637 45.0314 25.3868 45.0314 25.3868C45.0314 25.3868 45.1815 26.3624 45.6443 27.9635C45.8818 28.7765 46.3573 29.6647 46.7825 30.5403C44.9313 32.0538 43.7681 33.8049 43.3678 34.9557C42.6298 37.0821 43.2052 38.0452 44.2934 38.2703C44.7811 38.3704 45.4817 38.1452 46.0069 37.9201C46.6573 37.7075 47.4454 37.3446 48.171 36.8069C49.4218 35.8813 50.6226 34.5929 50.56 32.8543C50.5225 32.0538 50.3099 31.2657 50.0222 30.5153C51.5982 29.8648 53.6369 29.4896 56.2262 29.8023C61.7924 30.4527 62.8931 33.93 62.6806 35.3809C62.4679 36.832 61.3047 37.6324 60.9168 37.8826C60.529 38.1202 60.4039 38.2079 60.4415 38.3829C60.4915 38.6457 60.6666 38.6331 61.0043 38.5832C61.4671 38.508 63.9313 37.3949 64.0313 34.7183C64.1814 31.278 60.9168 27.5255 55.1255 27.5629ZM12.1974 42.0349C10.3587 44.0487 7.76954 44.8117 6.66882 44.1613C5.48054 43.4734 5.94322 40.5089 8.20732 38.37C9.58322 37.0692 11.3719 35.8684 12.5477 35.1304C12.8103 34.9678 13.2106 34.7303 13.6859 34.4425C13.761 34.3925 13.811 34.3674 13.811 34.3674C13.8985 34.3174 13.9986 34.2548 14.0987 34.1923C14.9367 37.2443 14.1362 39.921 12.1974 42.0349ZM25.6437 32.8914C25.0058 34.455 23.6549 38.4701 22.8419 38.2449C22.1413 38.0573 21.7162 35.0178 22.7042 32.0159C23.2045 30.5022 24.2677 28.7012 24.8931 28.0006C25.9064 26.8749 27.007 26.4996 27.2823 26.9624C27.6075 27.5629 26.044 31.9158 25.6437 32.8914ZM36.7385 38.1949C36.4633 38.3326 36.2131 38.4326 36.1006 38.3576C36.013 38.3076 36.213 38.12 36.213 38.12C36.213 38.12 37.6014 36.6315 38.1518 35.9436C38.4645 35.5434 38.8397 35.0806 39.24 34.5551V34.7052C39.2401 36.5063 37.514 37.7071 36.7385 38.1949ZM45.2939 36.2436C45.0938 36.0935 45.119 35.6307 45.7943 34.1798C46.0571 33.6044 46.6573 32.6413 47.6955 31.7282C47.8206 32.1034 47.8958 32.466 47.8831 32.8039C47.8708 35.0554 46.2697 35.8934 45.2939 36.2436Z" fill="#ADB5BD"/>
</svg>
